lib/healthicons/icons/solid/vehicles/war.svg

<svg fill="none" height="48" viewBox="0 0 48 48" width="48" xmlns="http://www.w3.org/2000/svg"><g fill="#333"><path d="m9.00738 23.9997c-1.10463.0001-2.02193-.9002-1.8714-1.9945.9336-6.7871 6.56122-12.0052 13.36402-12.0052 4.9969 0 9.3598 2.8154 11.694 7h10.806c.5523 0 1 .4477 1 1s-.4477 1-1 1h-9.8864c.3525.9559.607 1.9621.7504 3.0054.1505 1.0943-.7674 1.9945-1.8719 1.9945-5.1293.0002-8.1508 0-11.0011-.0001h-.0167c-3.2496-.0002-6.2813-.0004-11.96692-.0001z"/><path clip-rule="evenodd" d="m4.16587 29.9487c-.6874-1.9426.84753-3.9487 3.02128-3.9487h33.62565c2.1738 0 3.7087 2.0061 3.0213 3.9487l-1.3972 3.9487c-.867 2.45-3.301 4.1026-6.0426 4.1026h-24.7886c-2.74159 0-5.1756-1.6526-6.04256-4.1026zm11.83413 2.0513c0 1.3807-1.1193 2.5-2.5 2.5s-2.5-1.1193-2.5-2.5 1.1193-2.5 2.5-2.5 2.5 1.1193 2.5 2.5zm8 2.5c1.3807 0 2.5-1.1193 2.5-2.5s-1.1193-2.5-2.5-2.5-2.5 1.1193-2.5 2.5 1.1193 2.5 2.5 2.5zm13-2.5c0 1.3807-1.1193 2.5-2.5 2.5s-2.5-1.1193-2.5-2.5 1.1193-2.5 2.5-2.5 2.5 1.1193 2.5 2.5z" fill-rule="evenodd"/></g></svg>

<svg width="48" height="48" viewBox="0 0 48 48" fill="none" xmlns="http://www.w3.org/2000/svg">
<path d="M9.00738 23.9997C7.90275 23.9998 6.98545 23.0995 7.13598 22.0052C8.06958 15.2181 13.6972 10 20.5 10C25.4969 10 29.8598 12.8154 32.194 17H43C43.5523 17 44 17.4477 44 18C44 18.5523 43.5523 19 43 19H33.1136C33.4661 19.9559 33.7206 20.9621 33.864 22.0054C34.0145 23.0997 33.0966 23.9999 31.9921 23.9999C26.8628 24.0001 23.8413 23.9999 20.991 23.9998H20.9743C17.7247 23.9996 14.693 23.9994 9.00738 23.9997Z" fill="#333333"/>
<path fill-rule="evenodd" clip-rule="evenodd" d="M4.16587 29.9487C3.47847 28.0061 5.0134 26 7.18715 26H40.8128C42.9866 26 44.5215 28.0061 43.8341 29.9487L42.4369 33.8974C41.5699 36.3474 39.1359 38 36.3943 38H11.6057C8.86411 38 6.4301 36.3474 5.56314 33.8974L4.16587 29.9487ZM16 32C16 33.3807 14.8807 34.5 13.5 34.5C12.1193 34.5 11 33.3807 11 32C11 30.6193 12.1193 29.5 13.5 29.5C14.8807 29.5 16 30.6193 16 32ZM24 34.5C25.3807 34.5 26.5 33.3807 26.5 32C26.5 30.6193 25.3807 29.5 24 29.5C22.6193 29.5 21.5 30.6193 21.5 32C21.5 33.3807 22.6193 34.5 24 34.5ZM37 32C37 33.3807 35.8807 34.5 34.5 34.5C33.1193 34.5 32 33.3807 32 32C32 30.6193 33.1193 29.5 34.5 29.5C35.8807 29.5 37 30.6193 37 32Z" fill="#333333"/>
</svg>
